X:685
T:The Knights of Saint Patrick
M:6/8
K:D
L:1/8
A|dcd fef|dfd AFD|GBG FAF|E=CE GFE|
dcd fef| dfd AFD|GBG FAF|1 DED D2 A:|2 DED D2 f||
aba fdf|aba agf|gag e=ce|1 gag gfg|aba fdf|aba a2 g|\
fef gec|edd d2 f:|
|2 gag gfe| dcd ede|fdf efg|afd bge|fdB AFA ||
